X: 20221
T: Joe Bann's
R: barndance
M: 4/4
K: Gmajor
|:gfed efge|dcBA Bc d2|gfed efgw|fgaf g2:|
|:gabg af d2|efge dB G2|ABcA dBGB|cAFA G2:|
|:BcdB cd e2|ABcA Bc d2|G2 GB cBAG|FDEF G4:|

